X:1
T: Jenny's welcome to Charley
C:
R:Reel
Q: 232
K:Em
M:4/4
L:1/8
D3B AG EF|GE cE dE cE|D2 dc AG EG|((3ABA) AG EF GE|
D3B AG EF|GE cE dE cE|D2 dc AG EG|((3ABA) AG ED D2|
d3e dc AB|cA dB cA GB|Ad dc dc dB|cA GE ED D2|
dc de dc AB|cA dB cA GE|D2 ((3EFG) Ad dB|cA GE ED D2|
ea ag ag ef|ge ae ge dg|ea ag ag aa|ag ea e2 d2|
ea ag ag ef|ge af ge dB|A2 ((3Bcd) e2 dB|cA GE ED D2|
df ec df ed|cA AB c2 AG|Ad dc dc dd|ea ag e2 d2|
dc dc df ed|cA AB cd cA|GA cd ((3efe) de|cA Gc ((3ABA) E2||
